X: 158
T: Eregli Oyun Havasi
O: Turkey
M: 4/4
L: 1/8
P:ABBBBCCDD
K: C
Q: 1/4=210
%%MIDI program 111 % Shanai
%%MIDI bassprog 32 % Acoustic Bass
%%MIDI gchord f2z6
%%MIDI drum zdzddddz 69 40 40 69 40 110 80 110 80 60
%%MIDI drumon
P:A
"C#"Z|Z|Z|Z|\
P:B
AB^cB c2B2|^c3B BAc2|^cAed c2c2|B^cBA A2A2|
P:C
AB^cB c2B2|Z|^cAed c2c2|B^cBA A2A2|\
P:D
Afed e2f2|zfed e/f/e/d/ze|z4^c2B2|^cdBc A4|



